static/logos/remote-wordmark-color.svg

<svg width="100" height="23" viewBox="0 0 100 23" fill="none" xmlns="http://www.w3.org/2000/svg">
<g clip-path="url(#clip0_1_1267)">
<path d="M16.2558 16.8604H16.4729V21.8604H15.6434C10.2791 21.8604 7.17829 18.8294 7.17829 13.8759V11.3177L8.92248 10.8914C9.43155 10.7626 9.8945 10.494 10.2589 10.116C10.6233 9.73782 10.8747 9.26534 10.9845 8.75185C11.0929 8.23983 11.0545 7.70759 10.8734 7.21654C10.6923 6.72549 10.3761 6.29565 9.96124 5.97663C9.54597 5.65694 9.04977 5.45925 8.52845 5.40569C8.00705 5.35213 7.48112 5.44484 7.00949 5.67341C6.53786 5.90197 6.13921 6.25739 5.85822 6.69979C5.57723 7.14219 5.425 7.65411 5.4186 8.17821V19.1007H0V7.98441C0 7.65104 0.0232558 7.31771 0.0620155 6.98438C0.345687 5.02749 1.33069 3.24032 2.83371 1.95549C4.33673 0.670651 6.25536 -0.0243333 8.23256 -0.000120429C10.024 -0.0177714 11.7722 0.550563 13.2109 1.61832C14.6495 2.68609 15.6997 4.19477 16.2016 5.91461C16.6977 7.69756 16.5349 9.60456 15.7519 11.279C15.0858 12.7028 14.019 13.9015 12.6822 14.7286C13.1318 16.5348 14.0775 16.8681 16.1938 16.8681L16.2558 16.8604ZM30.3178 6.2712V9.32549H29.8217C28.7674 9.32549 27.9457 9.62007 27.3566 10.1937C27.0545 10.5057 26.8201 10.8768 26.668 11.2836C26.5159 11.6905 26.4495 12.1243 26.4729 12.5581V18.0697H23.5116V6.45725H26.4729V7.96115C26.8568 7.43383 27.3609 7.00553 27.9432 6.71167C28.5255 6.41781 29.1695 6.26682 29.8217 6.2712H30.3178ZM43.0543 13.3332H34.062C34.2403 14.0309 34.6667 14.6511 35.2481 15.0852C35.8372 15.5115 36.5504 15.7286 37.3876 15.7286C38.031 15.7286 38.6667 15.5968 39.2481 15.3177C39.7597 15.0852 40.2171 14.7363 40.5814 14.2945L42.5581 16.0232C41.9379 16.7646 41.1555 17.3534 40.2713 17.7441C39.3411 18.155 38.3178 18.3643 37.2946 18.3487C36.144 18.3656 35.008 18.091 33.9922 17.5503C33.0291 17.0434 32.2251 16.2797 31.6695 15.3437C31.114 14.4077 30.8286 13.3362 30.845 12.248C30.845 11.1627 31.1163 10.0852 31.6512 9.1472C32.1791 8.23084 32.9487 7.47727 33.876 6.96887C34.8367 6.43875 35.9183 6.16635 37.0155 6.17818C37.8244 6.15346 38.6298 6.29457 39.382 6.59281C40.1343 6.89105 40.8177 7.34011 41.3898 7.91232C41.9621 8.48456 42.4112 9.16782 42.7094 9.92014C43.0076 10.6725 43.1488 11.4778 43.124 12.2867C43.124 12.6356 43.1008 12.9844 43.0465 13.3332H43.0543ZM38.8682 9.42627C38.3313 9.00697 37.6696 8.77921 36.9884 8.77921C36.3071 8.77921 35.6454 9.00697 35.1085 9.42627C34.5651 9.86945 34.1836 10.48 34.0233 11.1627H39.9612C39.8009 10.48 39.4194 9.86945 38.876 9.42627H38.8682ZM62.124 7.36422C62.5256 7.78046 62.8378 8.27433 63.0418 8.81549C63.2457 9.35666 63.3371 9.93379 63.3101 10.5115V18.0774H60.3411V11.3953C60.3411 10.6821 60.1395 10.1084 59.7209 9.68983C59.5056 9.47363 59.2475 9.30472 58.9632 9.19394C58.6789 9.08317 58.3746 9.03294 58.0698 9.04642C57.3488 9.04642 56.7519 9.26348 56.3023 9.70534C56.0751 9.93177 55.8978 10.2032 55.7816 10.5022C55.6655 10.8013 55.6132 11.1213 55.6279 11.4418V18.0774H52.6667V11.3953C52.6667 10.6898 52.4574 10.1239 52.0388 9.68983C51.8181 9.47201 51.5547 9.30239 51.2652 9.19162C50.9757 9.08084 50.6662 9.03139 50.3566 9.04642C50.034 9.03239 49.712 9.08356 49.4097 9.19673C49.1074 9.30991 48.8309 9.48294 48.5969 9.70534C48.3701 9.93208 48.193 10.2036 48.0769 10.5025C47.9608 10.8015 47.9082 11.1213 47.9225 11.4418V18.0774H44.9612V6.45725H47.9147V7.6588C48.3425 7.17193 48.8733 6.78645 49.4687 6.53034C50.064 6.27423 50.7089 6.15393 51.3566 6.17818C52.1008 6.16267 52.845 6.33321 53.5116 6.6743C54.1318 6.99213 54.6512 7.47275 55.0078 8.06968C55.4638 7.45726 56.0621 6.96506 56.7509 6.63553C57.4396 6.30599 58.1982 6.14902 58.9612 6.17818C60.2791 6.17818 61.3333 6.56577 62.1163 7.35647L62.124 7.36422ZM77.5039 12.2635C77.5248 13.0712 77.3768 13.8744 77.0698 14.6218C76.7629 15.3693 76.3035 16.0446 75.7209 16.6046C75.1331 17.1796 74.4355 17.6305 73.6697 17.9301C72.9039 18.2298 72.0856 18.3722 71.2636 18.3487C69.4884 18.3487 68.0078 17.7674 66.8062 16.6046C66.2209 16.0459 65.7585 15.3713 65.4489 14.6238C65.1392 13.8763 64.9889 13.0723 65.0078 12.2635C65.0078 10.5348 65.6047 9.08518 66.8062 7.92239C67.3943 7.34762 68.0919 6.89702 68.8577 6.59738C69.6234 6.29774 70.4416 6.15518 71.2636 6.17818C73.0388 6.17818 74.5194 6.75957 75.7132 7.92239C76.2971 8.48162 76.758 9.15658 77.0663 9.9041C77.3746 10.6515 77.524 11.4551 77.5039 12.2635ZM73.5504 14.5658C73.8479 14.2625 74.0809 13.9022 74.2355 13.5066C74.39 13.1109 74.4629 12.6881 74.4496 12.2635C74.4496 11.3487 74.1473 10.5813 73.5504 9.9689C73.2549 9.66596 72.8998 9.42759 72.5075 9.26883C72.1153 9.11007 71.6943 9.03433 71.2713 9.04642C70.8478 9.0358 70.4267 9.11294 70.0345 9.27309C69.6422 9.43317 69.2874 9.6727 68.9922 9.97666C68.4067 10.5956 68.0805 11.4153 68.0805 12.2674C68.0805 13.1194 68.4067 13.9391 68.9922 14.5581C69.2877 14.8615 69.6426 15.1008 70.0347 15.2609C70.4269 15.421 70.8479 15.4984 71.2713 15.4883C72.186 15.4883 72.9457 15.1782 73.5426 14.5581L73.5504 14.5658ZM82.9225 9.1627V13.9922C82.9225 14.9844 83.4496 15.4805 84.5194 15.4805C85.0543 15.465 85.5736 15.3255 86.0465 15.0929V17.8526C85.3721 18.1937 84.6279 18.372 83.876 18.3487C82.5814 18.3487 81.5969 18.0077 80.9457 17.31C80.255 16.5286 79.9016 15.506 79.9612 14.465V9.1627H78.1085V6.45725H79.9612V4.51926L82.9147 3.51151V6.45725H86.0465V9.1627H82.9225ZM99.1628 13.3332H90.155C90.3411 14.0309 90.7597 14.6511 91.3488 15.0852C91.9302 15.5115 92.6434 15.7286 93.4806 15.7286C94.124 15.7286 94.7597 15.5968 95.3411 15.3177C95.8605 15.0852 96.3178 14.7363 96.6744 14.2945L98.6589 16.0232C98.0388 16.7674 97.2558 17.3487 96.3721 17.7441C95.4341 18.155 94.4186 18.3643 93.3954 18.3487C92.245 18.3656 91.1085 18.091 90.093 17.5503C89.1287 17.0445 88.3225 16.2812 87.7659 15.3452C87.2093 14.4091 86.9225 13.337 86.938 12.248C86.938 11.1627 87.2171 10.0929 87.7442 9.1472C88.276 8.23286 89.0481 7.48209 89.9767 6.97663C90.9364 6.4438 92.0186 6.16872 93.1163 6.17818C94.8605 6.17818 96.3178 6.75957 97.4806 7.92239C98.0543 8.49177 98.5054 9.17286 98.8054 9.92356C99.1054 10.6743 99.2481 11.4786 99.2248 12.2867C99.2248 12.6356 99.2016 12.9844 99.1628 13.3332ZM94.9845 9.42627C94.4473 9.00503 93.7837 8.77619 93.1008 8.77619C92.4178 8.77619 91.7543 9.00503 91.2171 9.42627C90.6767 9.87061 90.2977 10.481 90.1395 11.1627H96.062C95.9039 10.481 95.5248 9.87061 94.9845 9.42627Z" fill="#4F0AF5"/>
</g>
<defs>
<clipPath id="clip0_1_1267">
<rect width="100" height="22.4806" fill="white"/>
</clipPath>
</defs>
</svg>

<svg xmlns="http://www.w3.org/2000/svg" width="278.261" height="64" fill="none" viewBox="0 0 100 23"><g clip-path="url(#a)"><path fill="#4F0AF5" d="M16.256 16.86h.217v5h-.83c-5.364 0-8.465-3.03-8.465-7.984v-2.558l1.744-.427a2.816 2.816 0 0 0 2.063-2.14A2.776 2.776 0 0 0 9.96 5.978 2.822 2.822 0 0 0 5.42 8.178v10.923H0V7.984c0-.333.023-.666.062-1A8.155 8.155 0 0 1 8.232 0a8.218 8.218 0 0 1 7.97 5.915 7.766 7.766 0 0 1-.45 5.364 8.086 8.086 0 0 1-3.07 3.45c.45 1.806 1.396 2.14 3.512 2.14l.062-.009ZM30.318 6.271v3.054h-.496c-1.055 0-1.876.295-2.465.869a3.155 3.155 0 0 0-.884 2.364v5.512h-2.961V6.457h2.96v1.504a4.108 4.108 0 0 1 3.35-1.69h.496Zm12.736 7.062h-8.992a3.189 3.189 0 0 0 1.186 1.752c.59.426 1.302.644 2.14.644.643 0 1.279-.132 1.86-.411a3.73 3.73 0 0 0 1.333-1.024l1.977 1.73a6.302 6.302 0 0 1-2.287 1.72c-.93.411-1.953.62-2.976.605a6.815 6.815 0 0 1-3.303-.799 5.893 5.893 0 0 1-3.147-5.302c0-1.085.271-2.163.806-3.1a5.767 5.767 0 0 1 2.225-2.18 6.356 6.356 0 0 1 3.14-.79 5.93 5.93 0 0 1 6.108 6.109c0 .349-.023.697-.078 1.046h.008Zm-4.186-3.907a3.054 3.054 0 0 0-3.76 0 3.178 3.178 0 0 0-1.085 1.737h5.938a3.178 3.178 0 0 0-1.085-1.737h-.008Zm23.256-2.062a4.248 4.248 0 0 1 1.186 3.147v7.566h-2.969v-6.682c0-.713-.202-1.287-.62-1.705a2.193 2.193 0 0 0-1.651-.644c-.721 0-1.318.217-1.768.66a2.302 2.302 0 0 0-.674 1.736v6.635h-2.961v-6.682c0-.705-.21-1.271-.628-1.705a2.242 2.242 0 0 0-1.682-.644 2.403 2.403 0 0 0-1.76.66 2.31 2.31 0 0 0-.675 1.736v6.635h-2.96V6.457h2.953V7.66a4.364 4.364 0 0 1 3.442-1.48 4.535 4.535 0 0 1 2.155.495c.62.318 1.14.799 1.496 1.396a4.705 4.705 0 0 1 3.953-1.892c1.318 0 2.372.388 3.155 1.178l.008.008Zm15.38 4.9a5.811 5.811 0 0 1-1.783 4.34 6.124 6.124 0 0 1-4.457 1.745c-1.776 0-3.256-.582-4.458-1.744a5.814 5.814 0 0 1-1.798-4.341c0-1.73.597-3.179 1.798-4.342a6.131 6.131 0 0 1 4.458-1.744c1.775 0 3.255.582 4.45 1.744a5.813 5.813 0 0 1 1.79 4.342Zm-3.954 2.302a3.15 3.15 0 0 0 .9-2.303c0-.914-.303-1.682-.9-2.294a3.061 3.061 0 0 0-2.279-.923 3.068 3.068 0 0 0-2.279.93 3.333 3.333 0 0 0 0 4.582 3.081 3.081 0 0 0 2.28.93c.914 0 1.674-.31 2.27-.93l.008.008Zm9.373-5.403v4.83c0 .991.527 1.487 1.596 1.487a3.709 3.709 0 0 0 1.527-.387v2.76a4.506 4.506 0 0 1-2.17.496c-1.295 0-2.28-.341-2.93-1.039a3.954 3.954 0 0 1-.985-2.845V9.163H78.11V6.457h1.852V4.52l2.954-1.007v2.945h3.131v2.706h-3.124Zm16.24 4.17h-9.008a3.202 3.202 0 0 0 1.194 1.752c.581.426 1.294.644 2.132.644.643 0 1.279-.132 1.86-.411a3.6 3.6 0 0 0 1.333-1.024l1.985 1.73a6.327 6.327 0 0 1-2.287 1.72c-.938.411-1.953.62-2.977.605a6.815 6.815 0 0 1-3.302-.799 5.891 5.891 0 0 1-3.155-5.302c0-1.085.28-2.155.806-3.1a5.779 5.779 0 0 1 2.233-2.171 6.356 6.356 0 0 1 3.14-.799c1.743 0 3.2.582 4.364 1.744a5.91 5.91 0 0 1 1.744 4.365c0 .349-.023.697-.062 1.046Zm-4.178-3.907a3.053 3.053 0 0 0-3.768 0 3.179 3.179 0 0 0-1.078 1.737h5.923a3.178 3.178 0 0 0-1.078-1.737Z"/></g><defs><clipPath id="a"><path fill="#fff" d="M0 0h100v22.481H0z"/></clipPath></defs></svg>
